symbols/web/nfc/materialsymbolssharp/nfc_wght700gradN25_40px.svg

<svg xmlns="http://www.w3.org/2000/svg" height="40" width="40"><path d="M10 30h20V10h-8.667q-1.125 0-1.875 1.021t-.75 2.146v4.541q-.666.417-1 .98-.333.562-.333 1.312 0 1.125.75 1.875t1.875.75q1.125 0 1.875-.75t.75-1.875q0-.75-.354-1.312-.354-.563-.938-.98v-4.541h5.5v13.666H13.167V13.167h3.958V10H10Zm-5.917 5.917V4.042h31.875v31.875Zm4.209-4.209h23.416V8.292H8.292Zm0-23.416v23.416Z"/></svg>

<svg xmlns="http://www.w3.org/2000/svg" height="40" width="40"><path d="M10 30H30V10H21.333Q20.208 10 19.458 11.021Q18.708 12.042 18.708 13.167V17.708Q18.042 18.125 17.708 18.688Q17.375 19.25 17.375 20Q17.375 21.125 18.125 21.875Q18.875 22.625 20 22.625Q21.125 22.625 21.875 21.875Q22.625 21.125 22.625 20Q22.625 19.25 22.271 18.688Q21.917 18.125 21.333 17.708V13.167H26.833V26.833H13.167V13.167H17.125V10H10ZM4.083 35.917V4.042H35.958V35.917ZM8.292 31.708H31.708V8.292H8.292ZM8.292 8.292V31.708Z"/></svg>
